storage/app/icons/phosphoricons/regular/trademark.svg

<svg xmlns="http://www.w3.org/2000/svg" fill="currentColor" viewBox="0 0 256 256"><path d="M128 24a104 104 0 1 0 104 104A104.11 104.11 0 0 0 128 24m0 192a88 88 0 1 1 88-88 88.1 88.1 0 0 1-88 88m-16-112a8 8 0 0 1-8 8h-8v40a8 8 0 0 1-16 0v-40h-8a8 8 0 0 1 0-16h32a8 8 0 0 1 8 8m80 0v48a8 8 0 0 1-16 0v-26.71l-14 16a8 8 0 0 1-12 0l-14-16V152a8 8 0 0 1-16 0v-48a8 8 0 0 1 14-5.27l22 25.12 22-25.12a8 8 0 0 1 14 5.27"/></svg>

<svg xmlns="http://www.w3.org/2000/svg" viewBox="0 0 256 256" fill="currentColor"><path d="M128,24A104,104,0,1,0,232,128,104.11,104.11,0,0,0,128,24Zm0,192a88,88,0,1,1,88-88A88.1,88.1,0,0,1,128,216ZM112,104a8,8,0,0,1-8,8H96v40a8,8,0,0,1-16,0V112H72a8,8,0,0,1,0-16h32A8,8,0,0,1,112,104Zm80,0v48a8,8,0,0,1-16,0V125.29l-14,16a8,8,0,0,1-12,0l-14-16V152a8,8,0,0,1-16,0V104a8,8,0,0,1,14-5.27l22,25.12,22-25.12A8,8,0,0,1,192,104Z"/></svg>
